X:1
T:Title
%%score [ ( 1 2 ) ( 3 4 ) ] { ( 5 6 ) | ( 7 8 ) }
L:1/8
Q:1/4=120
M:4/4
K:D
V:1 treble nm="Midi_74"
V:2 treble 
V:3 bass nm="Midi_74"
V:4 bass 
V:5 treble nm="Org."
V:6 treble 
V:7 bass 
V:8 bass 
V:1
 F8 | F4 F4 | F8 || B8 | B4 B4 | B4 ^A4 | B8 || A8 | A4 A4 | A8 || d8 | d4 d4 | %12
"^William Henry Havergal\n(1793-1870)" d4 c4 | d8 |] %14
V:2
 D8 | C4 D4 | ^A,8 || (F6 D2) | E4 G4 | F4 E4 | D8 || A8 | E4 F4 | C8 || (A6 F2) | G4 B4 | A4 G4 | %13
 F8 |] %14
V:3
 A,8 | C4 B,4 | C8 || D8 | B,4 E4 | D4 C4 | B,8 || D8 | E4 A,4 | A,8 || A,8 | D4 D4 | F4 E4 | D8 |] %14
V:4
 D,8 | ^A,,4 B,,4 | F,,8 || (D6 B,2) | G,4 E,4 | F,4 F,4 | B,,8 || F,8 | C,4 D,4 | A,,8 || %10
 (F,6 D,2) | B,,4 G,,4 | A,,4 A,,4 | D,8 |] %14
V:5
 F8 | F4 F4 | F8 || B8 | B4 B4 | B4 ^A4 | B8 || A8 | A4 A4 | A8 || d8 | d4 d4 | d4 c4 | d8 |] %14
V:6
 D8 | C4 D4 | ^A,8 || F6 D2 | E4 [EG]4 | [DF]4 [CE]4 | [B,D]8 || [DA]8 | [A,E]4 [A,F]4 | [A,C]8 || %10
 A6 F2 | [DG]4 [GB]4 | [FA]4 [EG]4 | [DF]8 |] %14
V:7
 A,8 | F,4 F,4 | F,8 || x8 | x8 | x8 | x8 || x8 | x8 | x8 || x8 | x8 | x8 | x8 |] %14
V:8
 D,8 | ^A,,4 B,,4 | F,,8 || D6 B,2 | G,4 E,4 | F,4 F,4 | B,,8 || F,8 | C,4 D,4 | A,,8 || F,6 D,2 | %11
 B,,4 G,,4 | A,,4 A,,4 | D,8 |] %14

